vendor/shopware/storefront/Resources/app/storefront/dist/assets/icon/solid/printer.svg

<svg xmlns="http://www.w3.org/2000/svg" width="16" height="16" viewBox="0 0 16 16">
  <path fill="#758CA3" fill-rule="evenodd" d="M3.17070571,14 L3,14 C1.34314575,14 3.33066907e-16,12.6568542 0,11 L0,8 C-3.93871336e-16,6.69378117 0.834807627,5.58254212 2,5.17070571 L2,1 C2,0.44771525 2.44771525,0 3,0 L13,0 C13.5522847,-1.66533454e-16 14,0.44771525 14,1 L14,5.17070571 C15.1651924,5.58254212 16,6.69378117 16,8 L16,11 C16,12.6568542 14.6568542,14 13,14 L12.8292943,14 C12.4174579,15.1651924 11.3062188,16 10,16 L6,16 C4.69378117,16 3.58254212,15.1651924 3.17070571,14 Z M3.17070571,12 C3.58254212,10.8348076 4.69378117,10 6,10 L10,10 C11.3062188,10 12.4174579,10.8348076 12.8292943,12 L13,12 C13.5522847,12 14,11.5522847 14,11 L14,8 C14,7.44771525 13.5522847,7 13,7 L3,7 C2.44771525,7 2,7.44771525 2,8 L2,11 C2,11.5522847 2.44771525,12 3,12 L3.17070571,12 Z M4,2 L4,5 L12,5 L12,2 L4,2 Z M6,12 C5.44771525,12 5,12.4477153 5,13 C5,13.5522847 5.44771525,14 6,14 L10,14 C10.5522847,14 11,13.5522847 11,13 C11,12.4477153 10.5522847,12 10,12 L6,12 Z"/>
</svg>

<svg xmlns="http://www.w3.org/2000/svg" width="16" height="16" viewBox="0 0 16 16"><path fill="#758CA3" fill-rule="evenodd" d="M3.1707 14H3c-1.6569 0-3-1.3431-3-3V8c0-1.3062.8348-2.4175 2-2.8293V1c0-.5523.4477-1 1-1h10c.5523 0 1 .4477 1 1v4.1707c1.1652.4118 2 1.523 2 2.8293v3c0 1.6569-1.3431 3-3 3h-.1707c-.4118 1.1652-1.523 2-2.8293 2H6c-1.3062 0-2.4175-.8348-2.8293-2zm0-2c.4118-1.1652 1.523-2 2.8293-2h4c1.3062 0 2.4175.8348 2.8293 2H13c.5523 0 1-.4477 1-1V8c0-.5523-.4477-1-1-1H3c-.5523 0-1 .4477-1 1v3c0 .5523.4477 1 1 1h.1707zM4 2v3h8V2H4zm2 10c-.5523 0-1 .4477-1 1s.4477 1 1 1h4c.5523 0 1-.4477 1-1s-.4477-1-1-1H6z"/></svg>
